lib/healthicons/icons/outline/symbols/alert.svg

<svg fill="none" height="48" viewBox="0 0 48 48" width="48" xmlns="http://www.w3.org/2000/svg"><path d="m21 8c0-1.65685 1.3431-3 3-3s3 1.34315 3 3v22c0 1.6569-1.3431 3-3 3s-3-1.3431-3-3zm0 32c0-1.6569 1.3431-3 3-3s3 1.3431 3 3-1.3431 3-3 3-3-1.3431-3-3z" stroke="#333" stroke-width="2"/></svg>

<svg width="48" height="48" viewBox="0 0 48 48" fill="none" xmlns="http://www.w3.org/2000/svg">
<path d="M21 8C21 6.34315 22.3431 5 24 5C25.6569 5 27 6.34315 27 8V30C27 31.6569 25.6569 33 24 33C22.3431 33 21 31.6569 21 30V8ZM21 40C21 38.3431 22.3431 37 24 37C25.6569 37 27 38.3431 27 40C27 41.6569 25.6569 43 24 43C22.3431 43 21 41.6569 21 40Z" stroke="#333333" stroke-width="2"/>
</svg>
